src/assets/tokens/OP.svg

<svg width="73" height="73" viewBox="0 0 73 73" fill="none" xmlns="http://www.w3.org/2000/svg">
<g clip-path="url(#clip0_3180_39604)">
<path d="M36.0322 72.022C55.9145 72.022 72.0322 55.9042 72.0322 36.022C72.0322 16.1397 55.9145 0.0219727 36.0322 0.0219727C16.15 0.0219727 0.0322266 16.1397 0.0322266 36.022C0.0322266 55.9042 16.15 72.022 36.0322 72.022Z" fill="#FF0420"/>
<path d="M25.5395 45.5902C23.3959 45.5902 21.6397 45.0857 20.2707 44.077C18.9196 43.0503 18.2441 41.5913 18.2441 39.6999C18.2441 39.3036 18.2892 38.8171 18.3792 38.2407C18.6135 36.9438 18.9467 35.3856 19.379 33.5663C20.6039 28.6127 23.7652 26.1359 28.863 26.1359C30.25 26.1359 31.4929 26.3701 32.5917 26.8384C33.6906 27.2886 34.5552 27.9732 35.1856 28.8919C35.816 29.7925 36.1314 30.8734 36.1314 32.1342C36.1314 32.5125 36.0863 32.9899 35.9962 33.5663C35.726 35.1695 35.4017 36.7277 35.0235 38.2407C34.393 40.7086 33.3032 42.5549 31.7541 43.7798C30.2049 44.9867 28.1335 45.5902 25.5395 45.5902ZM25.9178 41.6993C26.9266 41.6993 27.7821 41.4021 28.4847 40.8077C29.2053 40.2132 29.7186 39.3036 30.0248 38.0787C30.4391 36.3854 30.7544 34.9083 30.9706 33.6474C31.0426 33.2691 31.0786 32.8819 31.0786 32.4855C31.0786 30.8463 30.2229 30.0267 28.5118 30.0267C27.5029 30.0267 26.6383 30.3239 25.9178 30.9183C25.2153 31.5129 24.7109 32.4225 24.4047 33.6474C24.0805 34.8543 23.7562 36.3314 23.432 38.0787C23.3599 38.4389 23.3239 38.8171 23.3239 39.2134C23.3239 40.8707 24.1886 41.6993 25.9178 41.6993Z" fill="white"/>
<path d="M37.3718 45.32C37.1736 45.32 37.0204 45.257 36.9124 45.1308C36.8223 44.9867 36.7954 44.8247 36.8314 44.6445L40.5601 27.0816C40.5961 26.8834 40.6952 26.7213 40.8573 26.5951C41.0195 26.4691 41.1905 26.4061 41.3707 26.4061H48.558C50.5574 26.4061 52.1606 26.8204 53.3675 27.6489C54.5925 28.4777 55.2049 29.6754 55.2049 31.2426C55.2049 31.6929 55.1509 32.1613 55.0428 32.6476C54.5925 34.7192 53.6828 36.2503 52.3138 37.2411C50.9628 38.2318 49.1074 38.7271 46.7476 38.7271H43.1L41.8571 44.6445C41.821 44.8427 41.7219 45.0047 41.5599 45.1308C41.3977 45.257 41.2265 45.32 41.0465 45.32H37.3718ZM46.9368 34.9984C47.6933 34.9984 48.3508 34.7912 48.9092 34.3769C49.4856 33.9626 49.8639 33.3682 50.0441 32.5936C50.0981 32.2873 50.1252 32.0172 50.1252 31.783C50.1252 31.2606 49.9721 30.8643 49.6658 30.5942C49.3595 30.3059 48.8372 30.1619 48.0986 30.1619H44.8562L43.8295 34.9984H46.9368Z" fill="white"/>
</g>
<defs>
<clipPath id="clip0_3180_39604">
<rect width="72" height="72" fill="white" transform="translate(0.0322266 0.0219727)"/>
</clipPath>
</defs>
</svg>

<svg fill="none" height="73" width="73" xmlns="http://www.w3.org/2000/svg" xmlns:xlink="http://www.w3.org/1999/xlink"><clipPath id="a"><path d="m0 0h72v72h-72z" transform="translate(.032 .022)"/></clipPath><g clip-path="url(#a)"><path d="m36.032 72.022c19.883 0 36-16.118 36-36s-16.117-36-36-36c-19.882 0-36 16.118-36 36s16.118 36 36 36z" fill="#ff0420"/><path d="m25.54 45.59c-2.144 0-3.9-.504-5.27-1.513-1.35-1.027-2.026-2.486-2.026-4.377 0-.396.045-.883.135-1.46a89.628 89.628 0 0 1 1-4.674c1.225-4.953 4.386-7.43 9.484-7.43 1.387 0 2.63.234 3.729.702 1.099.45 1.963 1.135 2.594 2.054.63.9.945 1.981.945 3.242 0 .379-.045.856-.135 1.432a61.242 61.242 0 0 1 -.973 4.675c-.63 2.468-1.72 4.314-3.269 5.539-1.55 1.207-3.62 1.81-6.215 1.81zm.378-3.89c1.009 0 1.864-.298 2.567-.892.72-.595 1.234-1.504 1.54-2.73.414-1.693.73-3.17.946-4.43a6.2 6.2 0 0 0 .108-1.163c0-1.639-.856-2.458-2.567-2.458-1.01 0-1.874.297-2.594.891-.703.595-1.207 1.505-1.513 2.73-.325 1.206-.649 2.683-.973 4.43-.072.36-.108.74-.108 1.135 0 1.658.865 2.486 2.594 2.486zm11.454 3.62c-.198 0-.352-.063-.46-.19a.646.646 0 0 1 -.08-.486l3.728-17.562a.774.774 0 0 1 .297-.487.824.824 0 0 1 .514-.189h7.187c2 0 3.603.414 4.81 1.243 1.224.829 1.837 2.026 1.837 3.594 0 .45-.054.918-.162 1.405-.45 2.071-1.36 3.602-2.73 4.593-1.35.99-3.206 1.486-5.565 1.486h-3.648l-1.243 5.918a.774.774 0 0 1 -.297.486.823.823 0 0 1 -.514.189zm9.565-10.322c.756 0 1.414-.207 1.972-.621.577-.414.955-1.009 1.135-1.783.054-.307.081-.577.081-.811 0-.522-.153-.919-.46-1.189-.306-.288-.828-.432-1.566-.432h-3.243l-1.026 4.836z" fill="#fff"/></g></svg>
